X:44
T:March. TJD.44
M:2/2
L:1/8
Q:1/4=120
S:T.J.Dixon MS2, Lincolnshire, early 19thC
R:march
A:Lincolnshire, Holton le Moor
Z:vmp.R.Greig2010
K:G
d2(dc)B2(BA)|G2D2G2A2|B2(Bc) edcB|A2(A>A)A4|!
d2dcB2(BA)|G2D2G2A2|B>dg>G AGAB|G2(G>G)G4:|!
|:A2(A>B)A2(A>B)|dcBAB2G2|B2(Bc)B2(Bc)|edcBA2D2|!
g2>f2 edcB|A^GABc2e2|d>fgG AGAB|G2(G>G)G4:|]

